symbolic/24x24/apps/retroshare.svg

<svg xmlns="http://www.w3.org/2000/svg" width="24" height="24"><circle style="opacity:.2" cx="13" cy="11.5" r="10"/><circle style="fill:#3f3f3f" cx="13" cy="11" r="10"/><path style="opacity:.1;fill:#fff" d="M13 1A10 10 0 0 0 3 11a10 10 0 0 0 .01.293A10 10 0 0 1 13 1.5a10 10 0 0 1 9.99 9.707A10 10 0 0 0 23 11 10 10 0 0 0 13 1z"/><path style="fill:none;stroke:#236ae4;stroke-width:2" d="m15.5 18.5-10-9 13-4z"/><circle style="opacity:.2" cx="5.5" cy="10" r="3.5"/><circle style="fill:#71d1ff" cx="5.5" cy="9.5" r="3.5"/><circle style="opacity:.2" cx="18.5" cy="6" r="3.5"/><circle style="fill:#71d1ff" cx="18.5" cy="5.5" r="3.5"/><circle style="opacity:.2" cx="15.5" cy="19" r="3.5"/><circle style="fill:#71d1ff" cx="15.5" cy="18.5" r="3.5"/><path style="opacity:.2;fill:#fff" d="M18.5 2A3.5 3.5 0 0 0 15 5.5a3.5 3.5 0 0 0 .012.225A3.5 3.5 0 0 1 18.5 2.5a3.5 3.5 0 0 1 3.488 3.275A3.5 3.5 0 0 0 22 5.5 3.5 3.5 0 0 0 18.5 2zm-13 4A3.5 3.5 0 0 0 2 9.5a3.5 3.5 0 0 0 .012.225A3.5 3.5 0 0 1 5.5 6.5a3.5 3.5 0 0 1 3.488 3.275A3.5 3.5 0 0 0 9 9.5 3.5 3.5 0 0 0 5.5 6zm10 9a3.5 3.5 0 0 0-3.5 3.5 3.5 3.5 0 0 0 .012.225A3.5 3.5 0 0 1 15.5 15.5a3.5 3.5 0 0 1 3.488 3.275A3.5 3.5 0 0 0 19 18.5a3.5 3.5 0 0 0-3.5-3.5z"/></svg>

<svg xmlns="http://www.w3.org/2000/svg" width="24" height="24" version="1.1">
 <circle style="opacity:0.2" cx="13" cy="11.5" r="10"/>
 <circle style="fill:#3f3f3f" cx="13" cy="11" r="10"/>
 <path style="opacity:0.1;fill:#ffffff" d="M 13,1 A 10,10 0 0 0 3,11 10,10 0 0 0 3.0098,11.293 10,10 0 0 1 13,1.5 10,10 0 0 1 22.99,11.207 10,10 0 0 0 23,11 10,10 0 0 0 13,1 Z"/>
 <path style="fill:none;stroke:#236ae4;stroke-width:2" d="m 15.5,18.5 -10,-9 13,-4 z"/>
 <circle style="opacity:0.2" cx="5.5" cy="10" r="3.5"/>
 <circle style="fill:#71d1ff" cx="5.5" cy="9.5" r="3.5"/>
 <circle style="opacity:0.2" cx="18.5" cy="6" r="3.5"/>
 <circle style="fill:#71d1ff" cx="18.5" cy="5.5" r="3.5"/>
 <circle style="opacity:0.2" cx="15.5" cy="19" r="3.5"/>
 <circle style="fill:#71d1ff" cx="15.5" cy="18.5" r="3.5"/>
 <path style="opacity:0.2;fill:#ffffff" d="M 18.5 2 A 3.5 3.5 0 0 0 15 5.5 A 3.5 3.5 0 0 0 15.011719 5.7246094 A 3.5 3.5 0 0 1 18.5 2.5 A 3.5 3.5 0 0 1 21.988281 5.7753906 A 3.5 3.5 0 0 0 22 5.5 A 3.5 3.5 0 0 0 18.5 2 z M 5.5 6 A 3.5 3.5 0 0 0 2 9.5 A 3.5 3.5 0 0 0 2.0117188 9.7246094 A 3.5 3.5 0 0 1 5.5 6.5 A 3.5 3.5 0 0 1 8.9882812 9.7753906 A 3.5 3.5 0 0 0 9 9.5 A 3.5 3.5 0 0 0 5.5 6 z M 15.5 15 A 3.5 3.5 0 0 0 12 18.5 A 3.5 3.5 0 0 0 12.011719 18.724609 A 3.5 3.5 0 0 1 15.5 15.5 A 3.5 3.5 0 0 1 18.988281 18.775391 A 3.5 3.5 0 0 0 19 18.5 A 3.5 3.5 0 0 0 15.5 15 z"/>
</svg>
